X:431
T:Love's Triumph
C:John Young, 1713
L:1/4
M:2/2
S:Colin Hume's website,  colinhume.com  - chords can also be printed below the stave.
Q:1/2=106
K:Bb
P:A
|: "Bb"FB- "/"Bc | "Bb"d2 "/"d3/c/ | "Bb"d/e/f "Cm"fe/d/ | "F"c2- "/"cg/f/ |\
"Eb"g3/f/ "/"g/a/b | "Bb"f2 "/"d3/d/ | "Bb"d/e/f "F7"FA | "Bb"B2- "/"B2 :|
P:B
|: "Gm"bg- "/"gb | "Dm/F"a2 "/"d3/d/ | "Eb"g3/a/ "/"ba/g/ | "D7"^f2 "/"d2 |\
"Gm"Bg "D7"Ag | "Gm"Bg "D7"cg | "Gm"dg "D7"a^f | "Gm"g2 "F7"a2 |
"Bb"bf "/"ed | "Eb"g2 "/"e3/c/ | "Bb"d/e/f "Eb"GB | "F7"A2- "/"AF |\
"Bb"Bd- "Bb7"de/f/ | "Eb"g2 "F7"f3/e/ | "Bb"d/e/f "F7"FA | "Bb"B2- "/"B2 :|

